X:5856
T:Scottiche à Hélène (Pierre Corbefin)
O:england
C:Repertori 29
M:2/4
L:1/16
K:C
GgGg fgGg|e2c2 d4|dfed e2c2|d2cd e2c2|\
GgGg fgGg|e2c2 d4|dfed e2c2|dcBd c4:|
|:g2e2 c'ceg|f2e2 d4|Gceg f2e2|Gceg d2c2|\
g2e2 c'ceg|f2e2 d4|Gceg fedc|Gceg d4:|


